X:222
T:Rounding Malin Head
S:Zoë Conway
C:Zoë Conway
Z:robin.beech@mcgill.ca
R:reel
M:4/4
L:1/8
K:Edor
EBB2 GBdB | edBc- cAB2 | EBB2 GBdB | edBc- cAd2 |
EBB2 GBdB | edBc- cAed Bc2A |1  BdcA BGFG :|2 BdcA Bdfg |:
eBB2 Bdeg | fdag fabg | eBB2 Bdef | edBc- cAd2 |
eBB2 Bdeg | fdag faga | bafg- gefd |1 BdcA Bdfg :|2 BdcA BGFG |]
